X: 282
T: Kolo iz Dubrave
O: Serbia
F: http://www.youtube.com/watch?v=uADxXmLPgGQ
F: http://www.youtube.com/watch?v=6CB8b3faWyM
M: 2/4
L: 1/16
K: Gm
P:A
"F"c4 c4|c2A2 B4|\
A2c2 c2c2|c2A2 B4|\
A4 c4|c2A2 B4|\
"Dm"B2cB A2F2|"Gm"G4 G4|
P:B
"Bb"dddd d2c2|d2c2 d2B2|\
"F"c2cc c2A2|"Gm"B2A2 G4|\
"F"c2cc A2B2|A2B2 "Gm"G2G2|\
"F"dcBA F2G2|[1"Gm" F2G2 GABc:|2 "Gm"F2G2 G4|
P:C
|:"F"A2c2- c2A2|B2A2 B2G2|\
"Gm"BAGF G2F2|G2z2 c2z2|\
"F"A2c2- c2A2|B2A2 B2G2|\
"Gm"BAGF G2F2|G2z2 G2z2:|
P:D
"Gm"G3F G2A2|B2c2 d4|\
"Bb"fed2 dcd2|d4 c4|\
"F"f2c2 c4|c2A2 B2G2|\
BAGF G2F2|"Gm"G2z2 G4:|



